X: 32964
T: Preston City, The
R: mazurka
M: 3/4
K: Amajor
|:c>B|A2 A>E A>c|A2 A>E A>c|e2 e>d c<d|B2- B>c B>G|
G2 G>E G>B|G2 G>E (3GAB|G>B e>d c<B|A4:|
|:(3EAf|e2 e>c A>a|f2 d>c B>A|G2 G>B (3fed|c2- c>A E>f|
e2 e>c A>a|f2 d2 B2|G2 G>B e<E|A4:|
K: DMaj
|:A2|d2 d>A (3FGA|d2 d>A (3FGA|f>e d>c B<A|G2- G>e ^d>e|
c2 e>c A>c|e2 e>^d e>A|a>g f>e d<c|d4:|

